X: 1
T: Strawberrys and Cream    (F)
S: Image from Darlene Wigton
R: reel
Z: 2017 John Chambers <jc:trillian.mit.edu>
M: C|
L: 1/8
K: F
% - - - - - - - - - - - - - - - - - - - -
% Voice 1 has each strain on a new staff:
|:\
"F"F2 (A/F/E/F/) AFAF | "C7"[G2C2] (B/G/^F/G/) BGBG |\
"F"F2 (A/F/E/F/) AFAF | "C7"GBAG "F"F2 F2 :|
|:\
"F"f2Af fAfA | "C7"g2eg gege |\
"F"f2Af fAfA | "F"af"G7"ed "C"c2c2 :|
|:\
"F"F2AF Acfa | "C7"G2BG cegb |\
"F"c'agf "C7"eg"F/a"cA | "Bb"GB"C7"AG "F"F2F2 :| [c'2F2C2]
% - - - - - - - - - - - - - - - - - - - -

%%sep 1 1 500

